actions/24/media-playback-pause.svg

<?xml version="1.0" encoding="UTF-8" standalone="no"?>
<!-- Created with Inkscape (http://www.inkscape.org/) -->

<svg
   xmlns:svg="http://www.w3.org/2000/svg"
   xmlns="http://www.w3.org/2000/svg"
   xmlns:xlink="http://www.w3.org/1999/xlink"
   version="1.0"
   width="24"
   height="24"
   id="svg2864">
  <defs
     id="defs2866">
    <radialGradient
       cx="605.71429"
       cy="486.64789"
       r="117.14286"
       fx="605.71429"
       fy="486.64789"
       id="radialGradient5067"
       xlink:href="#linearGradient5060"
       gradientUnits="userSpaceOnUse"
       gradientTransform="matrix(-0.02409719,0,0,0.02058823,17.52242,11.451366)" />
    <linearGradient
       id="linearGradient5048">
      <stop
         id="stop5050"
         style="stop-color:black;stop-opacity:0"
         offset="0" />
      <stop
         id="stop5056"
         style="stop-color:#404040;stop-opacity:1"
         offset="0.5" />
      <stop
         id="stop5052"
         style="stop-color:black;stop-opacity:0"
         offset="1" />
    </linearGradient>
    <linearGradient
       x1="302.85715"
       y1="366.64789"
       x2="302.85715"
       y2="609.50507"
       id="linearGradient5064"
       xlink:href="#linearGradient5048"
       gradientUnits="userSpaceOnUse"
       gradientTransform="matrix(0.03727811,0,0,0.02058823,-25.473376,11.451366)" />
    <linearGradient
       id="linearGradient5060">
      <stop
         id="stop5062"
         style="stop-color:black;stop-opacity:1"
         offset="0" />
      <stop
         id="stop5064"
         style="stop-color:black;stop-opacity:0"
         offset="1" />
    </linearGradient>
    <radialGradient
       cx="605.71429"
       cy="486.64789"
       r="117.14286"
       fx="605.71429"
       fy="486.64789"
       id="radialGradient5061"
       xlink:href="#linearGradient5060"
       gradientUnits="userSpaceOnUse"
       gradientTransform="matrix(0.02409718,0,0,0.02058823,6.4775835,11.451366)" />
    <linearGradient
       x1="12.35"
       y1="13.958842"
       x2="12.35"
       y2="45.497795"
       id="linearGradient2437"
       xlink:href="#linearGradient5106"
       gradientUnits="userSpaceOnUse"
       gradientTransform="matrix(0.4902778,0,0,0.4884247,11.445069,-0.2218468)" />
    <linearGradient
       id="linearGradient5106">
      <stop
         id="stop5108"
         style="stop-color:#729fcf;stop-opacity:1"
         offset="0" />
      <stop
         id="stop5110"
         style="stop-color:#3c77b4;stop-opacity:1"
         offset="1" />
    </linearGradient>
    <linearGradient
       x1="12.35"
       y1="13.958842"
       x2="12.35"
       y2="45.497795"
       id="linearGradient3905"
       xlink:href="#linearGradient5106"
       gradientUnits="userSpaceOnUse"
       gradientTransform="matrix(0.4902778,0,0,0.4884247,11.445411,-0.2218468)" />
    <linearGradient
       id="linearGradient2782">
      <stop
         id="stop2784"
         style="stop-color:white;stop-opacity:1"
         offset="0" />
      <stop
         id="stop2786"
         style="stop-color:white;stop-opacity:0"
         offset="1" />
    </linearGradient>
    <linearGradient
       x1="10.440458"
       y1="9.965703"
       x2="10.440458"
       y2="52.940395"
       id="linearGradient2444"
       xlink:href="#linearGradient2782"
       gradientUnits="userSpaceOnUse"
       gradientTransform="matrix(0.4195691,0,0,0.4662737,11.651092,0.182711)" />
  </defs>
  <g
     id="layer1">
    <path
       d="m 3,19.000171 c 0,0 0,4.999723 0,4.999723 -1.240944,0.0094 -3,-1.120183 -3,-2.500184 0,-1.379999 1.3848012,-2.499538 3,-2.499539 z"
       id="path2663"
       style="opacity:0.26984127;fill:url(#radialGradient5067);fill-opacity:1;fill-rule:nonzero;stroke:none;stroke-width:1.14820182;marker:none;visibility:visible;display:inline;overflow:visible" />
    <rect
       width="18"
       height="5"
       x="-21"
       y="19"
       transform="scale(-1,1)"
       id="rect4721"
       style="opacity:0.32567007;fill:url(#linearGradient5064);fill-opacity:1;fill-rule:nonzero;stroke:none;stroke-width:1.14820182;marker:none;visibility:visible;display:inline;overflow:visible" />
    <path
       d="m 21,19.000171 c 0,0 0,4.999723 0,4.999723 1.240944,0.0094 3,-1.120183 3,-2.500184 0,-1.379999 -1.384801,-2.499538 -3,-2.499539 z"
       id="path4725"
       style="opacity:0.23280424;fill:url(#radialGradient5061);fill-opacity:1;fill-rule:nonzero;stroke:none;stroke-width:1.14820182;marker:none;visibility:visible;display:inline;overflow:visible" />
    <path
       d="m 13.501294,1.5016365 0,19.9974115 7.997411,0 0,-19.9974115 -7.997411,0 z"
       id="path3898"
       style="fill:url(#linearGradient2437);fill-opacity:1;fill-rule:evenodd;stroke:#245398;stroke-width:1.00258899;stroke-linecap:round;stroke-linejoin:round;stroke-miterlimit:4;stroke-opacity:1;stroke-dasharray:none;stroke-dashoffset:0;marker:none;visibility:visible;display:inline;overflow:visible" />
    <path
       d="m 2.5012942,1.5016365 0,19.9974115 7.9974108,0 0,-19.9974115 -7.9974108,0 z"
       id="path2645"
       style="fill:url(#linearGradient3905);fill-opacity:1;fill-rule:evenodd;stroke:#245398;stroke-width:1.00258899;stroke-linecap:round;stroke-linejoin:round;stroke-miterlimit:4;stroke-opacity:1;stroke-dasharray:none;stroke-dashoffset:0;marker:none;visibility:visible;display:inline;overflow:visible" />
    <path
       d="m 14.497138,2.4971389 0,18.0057231 6.005723,-0.02133 0,-17.9843921 -6.005723,0 z m -10.9999995,-10e-8 0,18.0057232 6.0057231,-0.02133 0,-17.9843902 -6.0057231,0 z"
       id="path2647"
       style="opacity:0.41000001;fill:none;stroke:url(#linearGradient2444);stroke-width:0.99427688;stroke-linecap:round;stroke-linejoin:miter;stroke-miterlimit:4;stroke-opacity:0.97254902;stroke-dasharray:none;stroke-dashoffset:0;marker:none;visibility:visible;display:inline;overflow:visible" />
  </g>
</svg>

<?xml version="1.0" encoding="UTF-8" standalone="no"?>
<!-- Created with Inkscape (http://www.inkscape.org/) -->
<svg
   xmlns:dc="http://purl.org/dc/elements/1.1/"
   xmlns:cc="http://creativecommons.org/ns#"
   xmlns:rdf="http://www.w3.org/1999/02/22-rdf-syntax-ns#"
   xmlns:svg="http://www.w3.org/2000/svg"
   xmlns="http://www.w3.org/2000/svg"
   xmlns:xlink="http://www.w3.org/1999/xlink"
   xmlns:sodipodi="http://sodipodi.sourceforge.net/DTD/sodipodi-0.dtd"
   xmlns:inkscape="http://www.inkscape.org/namespaces/inkscape"
   width="24"
   height="24"
   id="svg2864"
   sodipodi:version="0.32"
   inkscape:version="0.46"
   version="1.0"
   sodipodi:docname="media-playback-pause.svg"
   inkscape:output_extension="org.inkscape.output.svg.inkscape">
  <defs
     id="defs2866">
    <radialGradient
       inkscape:collect="always"
       xlink:href="#linearGradient5060"
       id="radialGradient5067"
       gradientUnits="userSpaceOnUse"
       gradientTransform="matrix(-2.4097186e-2,0,0,2.0588234e-2,17.52242,11.451366)"
       cx="605.71429"
       cy="486.64789"
       fx="605.71429"
       fy="486.64789"
       r="117.14286" />
    <linearGradient
       id="linearGradient5048">
      <stop
         id="stop5050"
         offset="0"
         style="stop-color:black;stop-opacity:0;" />
      <stop
         style="stop-color:#404040;stop-opacity:1;"
         offset="0.5"
         id="stop5056" />
      <stop
         id="stop5052"
         offset="1"
         style="stop-color:black;stop-opacity:0;" />
    </linearGradient>
    <linearGradient
       inkscape:collect="always"
       xlink:href="#linearGradient5048"
       id="linearGradient5064"
       gradientUnits="userSpaceOnUse"
       gradientTransform="matrix(3.7278109e-2,0,0,2.0588234e-2,-25.473376,11.451366)"
       x1="302.85715"
       y1="366.64789"
       x2="302.85715"
       y2="609.50507" />
    <linearGradient
       id="linearGradient5060"
       inkscape:collect="always">
      <stop
         id="stop5062"
         offset="0"
         style="stop-color:black;stop-opacity:1;" />
      <stop
         id="stop5064"
         offset="1"
         style="stop-color:black;stop-opacity:0;" />
    </linearGradient>
    <radialGradient
       inkscape:collect="always"
       xlink:href="#linearGradient5060"
       id="radialGradient5061"
       gradientUnits="userSpaceOnUse"
       gradientTransform="matrix(2.4097176e-2,0,0,2.0588234e-2,6.4775835,11.451366)"
       cx="605.71429"
       cy="486.64789"
       fx="605.71429"
       fy="486.64789"
       r="117.14286" />
    <linearGradient
       inkscape:collect="always"
       xlink:href="#linearGradient5106"
       id="linearGradient2437"
       gradientUnits="userSpaceOnUse"
       gradientTransform="matrix(0.4902778,0,0,0.4884247,11.445069,-0.2218468)"
       x1="12.35"
       y1="13.958842"
       x2="12.35"
       y2="45.497795" />
    <linearGradient
       id="linearGradient5106">
      <stop
         id="stop5108"
         offset="0"
         style="stop-color:#729fcf;stop-opacity:1;" />
      <stop
         id="stop5110"
         offset="1"
         style="stop-color:#3c77b4;stop-opacity:1;" />
    </linearGradient>
    <linearGradient
       inkscape:collect="always"
       xlink:href="#linearGradient5106"
       id="linearGradient3905"
       gradientUnits="userSpaceOnUse"
       gradientTransform="matrix(0.4902778,0,0,0.4884247,11.445411,-0.2218468)"
       x1="12.35"
       y1="13.958842"
       x2="12.35"
       y2="45.497795" />
    <linearGradient
       id="linearGradient2782">
      <stop
         id="stop2784"
         offset="0"
         style="stop-color:white;stop-opacity:1;" />
      <stop
         id="stop2786"
         offset="1"
         style="stop-color:white;stop-opacity:0;" />
    </linearGradient>
    <linearGradient
       inkscape:collect="always"
       xlink:href="#linearGradient2782"
       id="linearGradient2444"
       gradientUnits="userSpaceOnUse"
       gradientTransform="matrix(0.4195691,0,0,0.4662737,11.651092,0.182711)"
       x1="10.440458"
       y1="9.965703"
       x2="10.440458"
       y2="52.940395" />
  </defs>
  <sodipodi:namedview
     id="base"
     pagecolor="#ffffff"
     bordercolor="#666666"
     borderopacity="1.0"
     inkscape:pageopacity="0.0"
     inkscape:pageshadow="2"
     inkscape:zoom="5.5"
     inkscape:cx="32"
     inkscape:cy="32"
     inkscape:current-layer="layer1"
     showgrid="true"
     inkscape:document-units="px"
     inkscape:grid-bbox="true"
     inkscape:window-width="640"
     inkscape:window-height="720"
     inkscape:window-x="0"
     inkscape:window-y="88" />
  <metadata
     id="metadata2869">
    <rdf:RDF>
      <cc:Work
         rdf:about="">
        <dc:format>image/svg+xml</dc:format>
        <dc:type
           rdf:resource="http://purl.org/dc/dcmitype/StillImage" />
      </cc:Work>
    </rdf:RDF>
  </metadata>
  <g
     id="layer1"
     inkscape:label="Layer 1"
     inkscape:groupmode="layer">
    <path
       style="display:inline;opacity:0.26984127000000002;fill:url(#radialGradient5067);fill-opacity:1;fill-rule:nonzero;stroke:none;stroke-width:1.14820181999999993;stroke-linecap:round;stroke-linejoin:miter;marker:none;marker-start:none;marker-mid:none;marker-end:none;stroke-miterlimit:4;stroke-dasharray:none;stroke-dashoffset:0;stroke-opacity:1;visibility:visible;overflow:visible"
       d="M 3,19.000171 C 3,19.000171 3,23.999894 3,23.999894 C 1.759056,24.009308 -5.5511151e-17,22.879711 -5.5511151e-17,21.49971 C -5.5511151e-17,20.119711 1.3848012,19.000172 3,19.000171 z"
       id="path2663" />
    <rect
       y="19"
       x="-21"
       height="5"
       width="18"
       id="rect4721"
       style="display:inline;opacity:0.32567006999999998;fill:url(#linearGradient5064);fill-opacity:1;fill-rule:nonzero;stroke:none;stroke-width:1.14820181999999993;stroke-linecap:round;stroke-linejoin:miter;marker:none;marker-start:none;marker-mid:none;marker-end:none;stroke-miterlimit:4;stroke-dasharray:none;stroke-dashoffset:0;stroke-opacity:1;visibility:visible;overflow:visible"
       transform="scale(-1,1)" />
    <path
       style="display:inline;opacity:0.23280423000000000;fill:url(#radialGradient5061);fill-opacity:1;fill-rule:nonzero;stroke:none;stroke-width:1.14820181999999993;stroke-linecap:round;stroke-linejoin:miter;marker:none;marker-start:none;marker-mid:none;marker-end:none;stroke-miterlimit:4;stroke-dasharray:none;stroke-dashoffset:0;stroke-opacity:1;visibility:visible;overflow:visible"
       d="M 21,19.000171 C 21,19.000171 21,23.999894 21,23.999894 C 22.240944,24.009308 24,22.879711 24,21.49971 C 24,20.119711 22.615199,19.000172 21,19.000171 z"
       id="path4725" />
    <path
       style="display:inline;fill:url(#linearGradient2437);fill-opacity:1;fill-rule:evenodd;stroke:#245398;stroke-width:1.00258899000000001;stroke-linecap:round;stroke-linejoin:round;marker:none;marker-start:none;marker-mid:none;marker-end:none;stroke-miterlimit:4;stroke-dasharray:none;stroke-dashoffset:0;stroke-opacity:1;visibility:visible;overflow:visible"
       d="M 13.501294,1.5016365 L 13.501294,21.499048 L 21.498705,21.499048 L 21.498705,1.5016365 L 13.501294,1.5016365 z"
       id="path3898" />
    <path
       style="display:inline;fill:url(#linearGradient3905);fill-opacity:1;fill-rule:evenodd;stroke:#245398;stroke-width:1.00258899000000001;stroke-linecap:round;stroke-linejoin:round;marker:none;marker-start:none;marker-mid:none;marker-end:none;stroke-miterlimit:4;stroke-dasharray:none;stroke-dashoffset:0;stroke-opacity:1;visibility:visible;overflow:visible"
       d="M 2.5012942,1.5016365 L 2.5012942,21.499048 L 10.498705,21.499048 L 10.498705,1.5016365 L 2.5012942,1.5016365 z"
       id="path2645" />
    <path
       id="path2647"
       style="display:inline;opacity:0.41000001000000003;fill:none;fill-opacity:1;fill-rule:evenodd;stroke:url(#linearGradient2444);stroke-width:0.99427688000000003;stroke-linecap:round;stroke-linejoin:miter;marker:none;marker-start:none;marker-mid:none;marker-end:none;stroke-miterlimit:4;stroke-dasharray:none;stroke-dashoffset:0;stroke-opacity:0.97254902000000021;visibility:visible;overflow:visible"
       d="M 14.497138,2.4971389 L 14.497138,20.502862 L 20.502861,20.481531 L 20.502861,2.4971389 L 14.497138,2.4971389 zM 3.4971385,2.4971388 L 3.4971385,20.502862 L 9.5028616,20.481529 L 9.5028616,2.4971388 L 3.4971385,2.4971388 z" />
  </g>
</svg>
